X:26
T:Catharsis
C:Amy Cann
M:4/4
L:1/8
K:Gm
"Gm"[G,D]GGF DGGF | DFGA BGAF | "Gm"DGGF DGGF | "Cm"DCB,C "Dm"B,A,B,A, | 
"Gm"[G,D]GGF DGGF | DFGA BABc | dcBc BAGF |1 "Dm"DGGF "Gm"G2 G2 :|]2 "Gm"DGGF "Dm"GABc ||
[|:"Gm"dGGc GGBG | GAGG GABc | "F"dFFc FFBF | FAFF GABc | 
"Eb"dEEc EEBE | EAEE GABc | "Gm"dcBc BAGF |1 "Dm"DGGF "Gm"GABc :|]2 "Dm"DCB,C B,A,B,A, |]

%%newpage
%%scale 0.7

